Dominus_Dark_Funeral/scalable/apps/anoise.svg

<?xml version="1.0" encoding="UTF-8" standalone="no"?><svg xmlns:dc="http://purl.org/dc/elements/1.1/" xmlns:cc="http://creativecommons.org/ns#" xmlns:rdf="http://www.w3.org/1999/02/22-rdf-syntax-ns#" xmlns="http://www.w3.org/2000/svg" xmlns:xlink="http://www.w3.org/1999/xlink" width="48" height="48" viewBox="0 0 12.7 12.7"><metadata><rdf:RDF><cc:Work><dc:format>image/svg+xml</dc:format><dc:type rdf:resource="http://purl.org/dc/dcmitype/StillImage"/><dc:title/></cc:Work></rdf:RDF></metadata><defs><linearGradient id="c"><stop offset="0" stop-color="#ff7f2a"/><stop offset=".45" stop-color="#fca"/><stop offset=".66" stop-color="#f95"/><stop offset="1" stop-color="#ffb380"/></linearGradient><linearGradient id="a"><stop offset="0"/><stop offset="1" stop-opacity="0"/></linearGradient><linearGradient id="b"><stop offset="0" stop-color="#515151"/><stop offset=".2" stop-color="#2b2b2b"/><stop offset=".53" stop-color="#1b1b1b"/><stop offset="1"/></linearGradient><linearGradient xlink:href="#c" id="d" x1="1" y1="6.35" x2="11.14" y2="1.83" gradientUnits="userSpaceOnUse"/></defs><path d="M6.35.1C4.81.1 3.57.39 2.66.97A3.67 3.67 0 0 0 1 4.22c0 1.91 1.54 4.47 2.01 5.2.54.85 1.13 1.61 1.65 2.16.68.7 1.21 1.03 1.69 1.03s1.01-.33 1.69-1.03a15.2 15.2 0 0 0 1.65-2.15c.47-.74 2-3.3 2-5.21 0-1.42-.57-2.54-1.65-3.25A6.75 6.75 0 0 0 6.35.09z" fill="url(#d)"/><path d="M4.97.23c-.23.04-.5.03-.7.08a5.9 5.9 0 0 0-1.61.65 3.67 3.67 0 0 0-.21.15l4.5 4.5L3.08 9.5c.48.75 1 1.4 1.47 1.92l4.1-4.1 1.7-1.7-1.7-1.7z" fill="#3f3f3f"/><path d="M6.35.1C4.81.1 3.57.39 2.66.97A3.67 3.67 0 0 0 1 4.22c0 1.91 1.54 4.47 2.01 5.2.54.85 1.13 1.61 1.65 2.16.68.7 1.21 1.03 1.69 1.03s1.01-.33 1.69-1.03a15.2 15.2 0 0 0 1.65-2.15c.47-.74 2-3.3 2-5.21 0-1.42-.57-2.54-1.65-3.25A6.75 6.75 0 0 0 6.35.09zm0 .03C6.91.15 7.44.2 7.9.31a5.82 5.82 0 0 1 1.6.66 3.65 3.65 0 0 1 1.24 1.36c.14.27.25.57.32.88a4.61 4.61 0 0 1-.14 2.53c-.15.52-.36 1.04-.58 1.52-.44.97-.95 1.8-1.18 2.17a15.2 15.2 0 0 1-1.65 2.15 4.9 4.9 0 0 1-.92.78.96.96 0 0 1-.24.1.96.96 0 0 1-.24-.1 4.76 4.76 0 0 1-.92-.78 14.41 14.41 0 0 1-1.65-2.15 19.2 19.2 0 0 1-1.18-2.17c-.22-.48-.43-1-.58-1.52a4.6 4.6 0 0 1-.14-2.52 3.73 3.73 0 0 1 .84-1.64 3.65 3.65 0 0 1 1.45-1A6.83 6.83 0 0 1 6.35.13z" opacity=".2"/></svg>

<?xml version="1.0" encoding="UTF-8" standalone="no"?>
<svg
   xmlns:dc="http://purl.org/dc/elements/1.1/"
   xmlns:cc="http://creativecommons.org/ns#"
   xmlns:rdf="http://www.w3.org/1999/02/22-rdf-syntax-ns#"
   xmlns:svg="http://www.w3.org/2000/svg"
   xmlns="http://www.w3.org/2000/svg"
   xmlns:xlink="http://www.w3.org/1999/xlink"
   xmlns:sodipodi="http://sodipodi.sourceforge.net/DTD/sodipodi-0.dtd"
   xmlns:inkscape="http://www.inkscape.org/namespaces/inkscape"
   width="48"
   height="48"
   viewBox="0 0 12.7 12.7"
   version="1.1"
   id="svg36"
   sodipodi:docname="anoise.svg"
   inkscape:version="0.92.4 (5da689c313, 2019-01-14)">
  <sodipodi:namedview
     pagecolor="#ffffff"
     bordercolor="#666666"
     borderopacity="1"
     objecttolerance="10"
     gridtolerance="10"
     guidetolerance="10"
     inkscape:pageopacity="0"
     inkscape:pageshadow="2"
     inkscape:window-width="1112"
     inkscape:window-height="480"
     id="namedview38"
     showgrid="false"
     inkscape:zoom="4.9166667"
     inkscape:cx="2.1355932"
     inkscape:cy="24"
     inkscape:window-x="0"
     inkscape:window-y="25"
     inkscape:window-maximized="0"
     inkscape:current-layer="svg36" />
  <metadata
     id="metadata2">
    <rdf:RDF>
      <cc:Work>
        <dc:format>image/svg+xml</dc:format>
        <dc:type
           rdf:resource="http://purl.org/dc/dcmitype/StillImage" />
        <dc:title></dc:title>
      </cc:Work>
    </rdf:RDF>
  </metadata>
  <defs
     id="defs28">
    <linearGradient
       id="c">
      <stop
         offset="0"
         stop-color="#ff7f2a"
         id="stop4" />
      <stop
         offset=".45"
         stop-color="#fca"
         id="stop6" />
      <stop
         offset=".66"
         stop-color="#f95"
         id="stop8" />
      <stop
         offset="1"
         stop-color="#ffb380"
         id="stop10" />
    </linearGradient>
    <linearGradient
       id="a">
      <stop
         offset="0"
         id="stop13" />
      <stop
         offset="1"
         stop-opacity="0"
         id="stop15" />
    </linearGradient>
    <linearGradient
       id="b">
      <stop
         offset="0"
         stop-color="#515151"
         id="stop18" />
      <stop
         offset=".2"
         stop-color="#2b2b2b"
         id="stop20" />
      <stop
         offset=".53"
         stop-color="#1b1b1b"
         id="stop22" />
      <stop
         offset="1"
         id="stop24" />
    </linearGradient>
    <linearGradient
       xlink:href="#c"
       id="d"
       x1="1"
       y1="6.35"
       x2="11.14"
       y2="1.83"
       gradientUnits="userSpaceOnUse" />
  </defs>
  <path
     d="M 6.35,0.1 C 4.81,0.1 3.57,0.39 2.66,0.97 A 3.67,3.67 0 0 0 1,4.22 c 0,1.91 1.54,4.47 2.01,5.2 0.54,0.85 1.13,1.61 1.65,2.16 0.68,0.7 1.21,1.03 1.69,1.03 0.48,0 1.01,-0.33 1.69,-1.03 A 15.2,15.2 0 0 0 9.69,9.43 c 0.47,-0.74 2,-3.3 2,-5.21 0,-1.42 -0.57,-2.54 -1.65,-3.25 A 6.75,6.75 0 0 0 6.35,0.09 Z"
     id="path30"
     style="fill:url(#d)"
     inkscape:connector-curvature="0" />
  <path
     d="M 4.97,0.23 C 4.74,0.27 4.47,0.26 4.27,0.31 A 5.9,5.9 0 0 0 2.66,0.96 3.67,3.67 0 0 0 2.45,1.11 l 4.5,4.5 -3.87,3.89 c 0.48,0.75 1,1.4 1.47,1.92 l 4.1,-4.1 1.7,-1.7 -1.7,-1.7 z"
     id="path32"
     inkscape:connector-curvature="0"
     style="fill:#3f3f3f" />
  <path
     d="M 6.35,0.1 C 4.81,0.1 3.57,0.39 2.66,0.97 A 3.67,3.67 0 0 0 1,4.22 c 0,1.91 1.54,4.47 2.01,5.2 0.54,0.85 1.13,1.61 1.65,2.16 0.68,0.7 1.21,1.03 1.69,1.03 0.48,0 1.01,-0.33 1.69,-1.03 A 15.2,15.2 0 0 0 9.69,9.43 c 0.47,-0.74 2,-3.3 2,-5.21 0,-1.42 -0.57,-2.54 -1.65,-3.25 A 6.75,6.75 0 0 0 6.35,0.09 Z m 0,0.03 C 6.91,0.15 7.44,0.2 7.9,0.31 a 5.82,5.82 0 0 1 1.6,0.66 3.65,3.65 0 0 1 1.24,1.36 c 0.14,0.27 0.25,0.57 0.32,0.88 A 4.61,4.61 0 0 1 10.92,5.74 C 10.77,6.26 10.56,6.78 10.34,7.26 9.9,8.23 9.39,9.06 9.16,9.43 A 15.2,15.2 0 0 1 7.51,11.58 4.9,4.9 0 0 1 6.59,12.36 0.96,0.96 0 0 1 6.35,12.46 0.96,0.96 0 0 1 6.11,12.36 4.76,4.76 0 0 1 5.19,11.58 14.41,14.41 0 0 1 3.54,9.43 19.2,19.2 0 0 1 2.36,7.26 C 2.14,6.78 1.93,6.26 1.78,5.74 A 4.6,4.6 0 0 1 1.64,3.22 3.73,3.73 0 0 1 2.48,1.58 3.65,3.65 0 0 1 3.93,0.58 6.83,6.83 0 0 1 6.35,0.13 Z"
     id="path34"
     inkscape:connector-curvature="0"
     style="opacity:0.2" />
</svg>
